Mono Glyph Icons/actions/unfilled/edit-table-delete-row.svg

<svg viewBox="0 0 22 22" xmlns="http://www.w3.org/2000/svg"><path d="m3 3v15 1h16v-1-15h-1-14zm1 1h4v2h-4zm5 0h4v2h-4zm5 0h4v2h-3-1v-1.0996094zm-10 3h4v1h1v-1h4v1h1v-1h1 3v1 1 1 2 1 1 1h-3-1v-1h-1v1h-4v-1h-1v1h-4v-1-1-1-2-1-1zm0 9h3 1v1 1h-4zm5 0h4v1 1h-4v-1zm5 0h1 3v2h-4v-1z"/><path d="m19.5 3v16c0 .276-.224.5-.5.5h-16c-.276 0-.5-.224-.5-.5v-16c0-.276.224-.5.5-.5h16c.276 0 .5.224.5.5zm-16 .5v.5c0-.276.224-.5.5-.5zm0 15h.5c-.276 0-.5-.224-.5-.5zm15 0v-.5c0 .276-.224.5-.5.5zm0-3.5c0 .276-.224.5-.5.5.276 0 .5.224.5.5zm-5 0c0 .276-.224.5-.5.5.276 0 .5.224.5.5 0-.276.224-.5.5-.5-.276 0-.5-.224-.5-.5zm-.5 3.5h1c-.276 0-.5-.224-.5-.5 0 .276-.224.5-.5.5zm-4.5-3.5c0 .276-.224.5-.5.5.276 0 .5.224.5.5 0-.276.224-.5.5-.5-.276 0-.5-.224-.5-.5zm-.5 3.5h1c-.276 0-.5-.224-.5-.5 0 .276-.224.5-.5.5zm-4.5-2.5c0-.276.224-.5.5-.5-.276 0-.5-.224-.5-.5zm15-10c0 .276-.224.5-.5.5.276 0 .5.224.5.5zm-5 0c0 .276-.224.5-.5.5.276 0 .5.224.5.5 0-.276.224-.5.5-.5-.276 0-.5-.224-.5-.5zm-5 0c0 .276-.224.5-.5.5.276 0 .5.224.5.5 0-.276.224-.5.5-.5-.276 0-.5-.224-.5-.5zm-5 1c0-.276.224-.5.5-.5-.276 0-.5-.224-.5-.5zm15-3.5h-.5c.276 0 .5.224.5.5zm-5.5 0c.276 0 .5.224.5.5 0-.276.224-.5.5-.5zm-5 0c.276 0 .5.224.5.5 0-.276.224-.5.5-.5zm-3.5 2h3v-1h-3zm5 0h3v-1h-3zm5 0h3v-1h-3zm-10 12h3v-1h-3zm5 0h3v-1h-3zm5 0h3v-1h-3zm-7.414-5-2.586-2.586v2.586zm7.828-3 2.586 2.586v-2.586zm2.439 3.854-.699-.7c.137.143.177.354.101.537-.077.187-.26.309-.462.309h1.207v-.045c-.054-.024-.104-.059-.147-.101zm-4.108-4.545c.077-.187.26-.309.462-.309h-1.414c.133 0 .26.053.354.146l.699.7c-.137-.143-.177-.354-.101-.537zm-4.598-.163.699.7c-.137-.143-.177-.354-.101-.537.077-.187.26-.309.462-.309h-1.414c.133 0 .26.053.354.146zm4.108 4.545c-.077.187-.26.309-.462.309h1.414c-.133 0-.26-.053-.354-.146l-.699-.7c.137.143.177.354.101.537zm-8.108-4.545.699.7c-.137-.143-.177-.354-.101-.537.077-.187.26-.309.462-.309h-1.207v.045c.054.024.104.059.147.101zm4.108 4.545c-.077.187-.26.309-.462.309h1.414c-.133 0-.26-.053-.354-.146l-.699-.7c.137.143.177.354.101.537zm1.159-.691h1.172l-3-3h-1.172zm4 0h1.172l-3-3h-1.172z"/><path d="m4 14h5.29297 4 4 .70703v-.70703-.29297h-.29297l-4-4h4.29297v-1h-14v1h.29297l4 4h-4.29297zm1.70703-5h2.58594l4 4h-2.58594zm4 0h2.58594l4 4h-2.58594z"/></svg>

<?xml version="1.0" encoding="utf-8"?>
<svg viewBox="0 0 22 22" xmlns="http://www.w3.org/2000/svg">
  <path d="M 19.5 3 L 19.5 19 C 19.5 19.276 19.276 19.5 19 19.5 L 3 19.5 C 2.724 19.5 2.5 19.276 2.5 19 L 2.5 3 C 2.5 2.724 2.724 2.5 3 2.5 L 19 2.5 C 19.276 2.5 19.5 2.724 19.5 3 Z M 4.5 5.5 L 7.5 5.5 L 7.5 4.5 L 4.5 4.5 Z M 9.5 5.5 L 12.5 5.5 L 12.5 4.5 L 9.5 4.5 Z M 14.5 5.5 L 17.5 5.5 L 17.5 4.5 L 14.5 4.5 Z M 4.5 17.5 L 7.5 17.5 L 7.5 16.5 L 4.5 16.5 Z M 9.5 17.5 L 12.5 17.5 L 12.5 16.5 L 9.5 16.5 Z M 14.5 17.5 L 17.5 17.5 L 17.5 16.5 L 14.5 16.5 Z M 7.086 12.5 L 4.5 9.914 L 4.5 12.5 Z M 14.914 9.5 L 17.5 12.086 L 17.5 9.5 Z M 9.914 12.5 L 11.086 12.5 L 8.086 9.5 L 6.914 9.5 Z M 13.914 12.5 L 15.086 12.5 L 12.086 9.5 L 10.914 9.5 Z"/>
</svg>
